src/next/cmd/lc_insertrowbreak.svg

<svg enable-background="new 0 0 128 128" height="24" viewBox="0 0 24 24" width="24" xmlns="http://www.w3.org/2000/svg" xmlns:xlink="http://www.w3.org/1999/xlink"><linearGradient id="a" gradientUnits="userSpaceOnUse" x1="11.6362" x2="11.6362" y1="87.2733" y2="34.9104"><stop offset="0" stop-color="#06f"/><stop offset="1" stop-color="#80b3ff"/></linearGradient><radialGradient id="b" cx="119.7217" cy="107.77396" gradientTransform="matrix(0 1.0482277 -.84015092 0 121.34409 12.791505)" gradientUnits="userSpaceOnUse" r="139.55859"><stop offset="0" stop-color="#c3c5c6"/><stop offset=".11366145" stop-color="#e5e5e5"/><stop offset=".20296688" stop-color="#ececec"/><stop offset=".2363" stop-color="#fafafa"/><stop offset=".43151432" stop-color="#fff"/><stop offset=".72924501" stop-color="#fafafa"/><stop offset=".8449" stop-color="#ebecec"/><stop offset="1" stop-color="#e1e2e3"/></radialGradient><radialGradient id="c" cx="138.80815" cy="139.86963" gradientTransform="matrix(0 .9686802 -.9686802 0 129.65722 -3.860883)" gradientUnits="userSpaceOnUse" r="139.5585"><stop offset="0" stop-color="#3e3e3e"/><stop offset=".0151" stop-color="#505050"/><stop offset=".0558" stop-color="#7e7e7e"/><stop offset=".1357" stop-color="#c6c6c6"/><stop offset=".20990001" stop-color="#f1f1f1"/><stop offset=".24349999" stop-color="#fcfcfc"/><stop offset=".2722" stop-color="#fff"/></radialGradient><filter id="d"><feGaussianBlur stdDeviation="1.0394514"/></filter><filter id="e"><feGaussianBlur stdDeviation=".50063244"/></filter><g transform="matrix(.171875 0 0 .171875 .047097 1.999719)"><path d="m17.233957 3.1695525.04082 120.0763375 115.013773-.17612c.375-.375.586-.884.586-1.414v-118.7386173l-115.640589.2524198z" filter="url(#d)" opacity=".553425" transform="matrix(0 1.0090419 -1.003276 0 132.87473 -13.507326)"/><path d="m17.233957 4.1662872.04082 119.0796028 103.121303-.17612c.375-.375.586-.884.586-1.414v-117.7418826l-103.748119.2524198z" filter="url(#d)" opacity=".306849" transform="matrix(0 1.0090419 -1.003276 0 132.87473 -13.507326)"/><path d="m17.233957 3.20077.04082 120.04512 115.013773-.17612c.375-.375.586-.884.586-1.414v-118.7074198z" filter="url(#d)" opacity=".306849" transform="matrix(0 1.0090419 -1.003276 0 132.87473 -13.507326)"/><path d="m19.153956 5.131906v115.983704l87.429654-.31022c.375-.375.586-.884.586-1.414v-114.5118738l-88.015654.2524198z" filter="url(#e)" opacity=".89589" transform="matrix(0 1.0090419 -1.003276 0 132.87473 -13.507326)"/><path d="m127.72601 5.8198213h-116.363655l.220747 110.2438387c.36325.36326.85631.56764 1.36971.56764h115.026468l-.25325-110.8114787z" fill="url(#c)"/><path d="m116.08495 17.456183c0-.577573-.37722-1.048226-.84016-1.048226l-91.140845.355848c-.463774 0-.840163.470654-.840163 1.048228l-.176383 81.074757c.157109.19604.373023.30713.593982.30713l92.162419.000083c.46292 0 .84014-.4696.84014-1.04822z" fill="url(#b)" stroke-width="1.019281"/><path d="m116.09525 11.638082h5.67844l.13411 98.909008h-5.67844z" fill="#bbb"/><g fill="#bcbcbc"><path d="m17.180527 11.638h5.8181l.13411 98.90901h-5.8181z"/><path d="m22.988329 46.5466 92.956961.000083v5.8181l-92.956961-.000083z"/><path d="m22.988329 29.0923 92.956961.000083v5.8181l-92.956961-.000083z"/><path d="m22.988329 64.0009 92.956961.000083v5.8181l-92.956961-.000083z"/><path d="m23.138289 81.235626 92.956961.000083v5.8181l-92.956961-.000083z"/><path d="m22.988329 11.638 92.956961.000082v5.818101l-92.956961-.000083z"/></g><path d="m81.176349 11.638082h5.67844v93.089598h-5.67844z" fill="#bbb"/><path d="m46.400389 11.638h5.67844v93.0896h-5.67844z" fill="#bbb"/><path d="m46.291553 5.8198213h5.8181l.119136-.0000028h-5.8181z" fill="#258aff"/><g fill="#258aff" transform="matrix(0 1 -1 0 145.359202 .136402)"><path d="m46.410689 23.451402h5.8181v-5.818182h-5.8181z"/><path d="m46.410689 58.360493h5.8181l-.000408-28.946581h-5.8181z"/><path d="m46.410689 93.269584h5.8181v-29.090909h-5.8181z"/><path d="m46.410689 122.18321h5.8181v-23.095444h-5.8181z"/><path d="m46.410689 128.17867h5.8181l.134111 5.81802h-5.8181z"/></g><g transform="translate(-.274018 -14.543818)"><path d="m34.9086 64.0009c-8.376698 5.43954-26.5319029 17.832859-34.9086 23.2724 0-10.879081 0-35.665719 0-46.5448 8.3766972 5.439541 26.531903 17.832859 34.9086 23.2724z" fill="url(#a)"/><path d="m5.8183594 51.597656v24.804688c6.4136386-4.288117 12.3614396-8.242067 18.6035156-12.402344-6.242103-4.159955-12.189674-8.114497-18.6035156-12.402344z" fill="#bfd9ff"/></g><path d="m22.998709 104.72899 92.956961.00008v5.8181l-92.956961-.00008z" fill="#bcbcbc"/></g></svg>

<?xml version="1.0" encoding="UTF-8" standalone="no"?>
<svg
   xmlns:dc="http://purl.org/dc/elements/1.1/"
   xmlns:cc="http://creativecommons.org/ns#"
   xmlns:rdf="http://www.w3.org/1999/02/22-rdf-syntax-ns#"
   xmlns:svg="http://www.w3.org/2000/svg"
   xmlns="http://www.w3.org/2000/svg"
   xmlns:xlink="http://www.w3.org/1999/xlink"
   xmlns:sodipodi="http://sodipodi.sourceforge.net/DTD/sodipodi-0.dtd"
   xmlns:inkscape="http://www.inkscape.org/namespaces/inkscape"
   enable-background="new 0 0 128 128"
   height="24"
   viewBox="0 0 24 24"
   width="24"
   version="1.1"
   id="svg100"
   sodipodi:docname="lc_insertrowbreak.svg"
   inkscape:version="0.92.4 (unknown)"
   inkscape:export-filename="/home/rizmut/Dokumen/Rizmut/Github/libreoffice-style-karasa-jaga/build/next/cmd/lc_insertrowbreak.png"
   inkscape:export-xdpi="96"
   inkscape:export-ydpi="96">
  <metadata
     id="metadata106">
    <rdf:RDF>
      <cc:Work
         rdf:about="">
        <dc:format>image/svg+xml</dc:format>
        <dc:type
           rdf:resource="http://purl.org/dc/dcmitype/StillImage" />
        <dc:title></dc:title>
      </cc:Work>
    </rdf:RDF>
  </metadata>
  <defs
     id="defs104">
    <linearGradient
       inkscape:collect="always"
       xlink:href="#linearGradient4372"
       id="linearGradient919"
       x1="11.6362"
       y1="87.2733"
       x2="11.6362"
       y2="34.9104"
       gradientUnits="userSpaceOnUse" />
    <linearGradient
       inkscape:collect="always"
       id="linearGradient4372">
      <stop
         style="stop-color:#0066ff;stop-opacity:1;"
         offset="0"
         id="stop4374" />
      <stop
         style="stop-color:#80b3ff;stop-opacity:1"
         offset="1"
         id="stop4376" />
    </linearGradient>
  </defs>
  <sodipodi:namedview
     pagecolor="#ffffff"
     bordercolor="#666666"
     borderopacity="1"
     objecttolerance="10"
     gridtolerance="10"
     guidetolerance="10"
     inkscape:pageopacity="0"
     inkscape:pageshadow="2"
     inkscape:window-width="1366"
     inkscape:window-height="714"
     id="namedview102"
     showgrid="true"
     inkscape:zoom="10.429825"
     inkscape:cx="4.0337111"
     inkscape:cy="14.090396"
     inkscape:window-x="0"
     inkscape:window-y="28"
     inkscape:window-maximized="1"
     inkscape:current-layer="g933">
    <inkscape:grid
       type="xygrid"
       id="grid913"
       spacingx="0.5"
       spacingy="0.5"
       empspacing="2" />
  </sodipodi:namedview>
  <radialGradient
     id="a"
     cx="119.7217"
     cy="107.77396"
     gradientTransform="matrix(0,1.0482277,-0.84015092,0,121.34409,12.791505)"
     gradientUnits="userSpaceOnUse"
     r="139.55859">
    <stop
       offset="0"
       stop-color="#c3c5c6"
       id="stop2" />
    <stop
       offset=".11366145"
       stop-color="#e5e5e5"
       id="stop4" />
    <stop
       offset=".20296688"
       stop-color="#ececec"
       id="stop6" />
    <stop
       offset=".2363"
       stop-color="#fafafa"
       id="stop8" />
    <stop
       offset=".43151432"
       stop-color="#fff"
       id="stop10" />
    <stop
       offset=".72924501"
       stop-color="#fafafa"
       id="stop12" />
    <stop
       offset=".8449"
       stop-color="#ebecec"
       id="stop14" />
    <stop
       offset="1"
       stop-color="#e1e2e3"
       id="stop16" />
  </radialGradient>
  <radialGradient
     id="b"
     cx="138.80815"
     cy="139.86963"
     gradientTransform="matrix(0,0.9686802,-0.9686802,0,129.65722,-3.860883)"
     gradientUnits="userSpaceOnUse"
     r="139.5585">
    <stop
       offset="0"
       stop-color="#3e3e3e"
       id="stop19" />
    <stop
       offset=".0151"
       stop-color="#505050"
       id="stop21" />
    <stop
       offset=".0558"
       stop-color="#7e7e7e"
       id="stop23" />
    <stop
       offset=".1357"
       stop-color="#c6c6c6"
       id="stop25" />
    <stop
       offset=".20990001"
       stop-color="#f1f1f1"
       id="stop27" />
    <stop
       offset=".24349999"
       stop-color="#fcfcfc"
       id="stop29" />
    <stop
       offset=".2722"
       stop-color="#fff"
       id="stop31" />
  </radialGradient>
  <filter
     id="c">
    <feGaussianBlur
       stdDeviation="1.0394514"
       id="feGaussianBlur34" />
  </filter>
  <filter
     id="d">
    <feGaussianBlur
       stdDeviation=".50063244"
       id="feGaussianBlur37" />
  </filter>
  <g
     id="g897"
     transform="matrix(0.171875,0,0,0.171875,0.04709688,1.9997187)">
    <path
       style="opacity:0.55342503;filter:url(#c)"
       inkscape:connector-curvature="0"
       id="path40"
       transform="matrix(0,1.0090419,-1.003276,0,132.87473,-13.507326)"
       d="m 17.233957,3.1695525 0.04082,120.0763375 115.013773,-0.17612 c 0.375,-0.375 0.586,-0.884 0.586,-1.414 V 2.9171527 L 17.233961,3.1695725 Z"
       sodipodi:nodetypes="cccsccc" />
    <path
       style="opacity:0.30684904;filter:url(#c)"
       inkscape:connector-curvature="0"
       id="path42"
       transform="matrix(0,1.0090419,-1.003276,0,132.87473,-13.507326)"
       d="m 17.233957,4.1662872 0.04082,119.0796028 103.121303,-0.17612 c 0.375,-0.375 0.586,-0.884 0.586,-1.414 V 3.9138874 L 17.233961,4.1663072 Z"
       sodipodi:nodetypes="cccsccc" />
    <path
       style="opacity:0.30684904;filter:url(#c)"
       inkscape:connector-curvature="0"
       id="path44"
       transform="matrix(0,1.0090419,-1.003276,0,132.87473,-13.507326)"
       d="m 17.233957,3.20077 0.04082,120.04512 115.013773,-0.17612 c 0.375,-0.375 0.586,-0.884 0.586,-1.414 V 2.9483502 Z"
       sodipodi:nodetypes="cccscc" />
    <path
       style="opacity:0.89589;filter:url(#d)"
       inkscape:connector-curvature="0"
       id="path46"
       transform="matrix(0,1.0090419,-1.003276,0,132.87473,-13.507326)"
       d="M 19.153956,5.131906 V 121.11561 l 87.429654,-0.31022 c 0.375,-0.375 0.586,-0.884 0.586,-1.414 V 4.8795162 L 19.153956,5.131936 Z"
       sodipodi:nodetypes="cccsccc" />
    <path
       inkscape:connector-curvature="0"
       style="fill:url(#b)"
       id="path48"
       d="M 127.72601,5.8198213 H 11.362355 L 11.583102,116.06366 c 0.36325,0.36326 0.85631,0.56764 1.36971,0.56764 H 127.97928 L 127.72603,5.8198213 Z"
       sodipodi:nodetypes="cccsccc" />
    <path
       inkscape:connector-curvature="0"
       style="fill:url(#a);stroke-width:1.01928103"
       id="path50"
       d="m 116.08495,17.456183 c 0,-0.577573 -0.37722,-1.048226 -0.84016,-1.048226 l -91.140845,0.355848 c -0.463774,0 -0.840163,0.470654 -0.840163,1.048228 L 23.087399,98.88679 c 0.157109,0.19604 0.373023,0.30713 0.593982,0.30713 l 92.162419,8.3e-5 c 0.46292,0 0.84014,-0.4696 0.84014,-1.04822 z"
       sodipodi:nodetypes="cccccsscc" />
    <path
       style="fill:#bbbbbb"
       inkscape:connector-curvature="0"
       id="path54"
       d="m 116.09525,11.638082 h 5.67844 l 0.13411,98.909008 h -5.67844 z"
       sodipodi:nodetypes="ccccc" />
    <path
       style="fill:#bcbcbc"
       inkscape:connector-curvature="0"
       id="path56"
       d="m 17.180527,11.638 h 5.8181 l 0.13411,98.90901 h -5.8181 z"
       sodipodi:nodetypes="ccccc" />
    <path
       style="fill:#bcbcbc"
       inkscape:connector-curvature="0"
       id="path58"
       d="m 22.988329,46.5466 92.956961,8.3e-5 v 5.8181 L 22.988329,52.3647 Z"
       sodipodi:nodetypes="ccccc" />
    <path
       style="fill:#bcbcbc"
       inkscape:connector-curvature="0"
       id="path60"
       d="m 22.988329,29.0923 92.956961,8.3e-5 v 5.8181 L 22.988329,34.9104 Z"
       sodipodi:nodetypes="ccccc" />
    <path
       style="fill:#bcbcbc"
       inkscape:connector-curvature="0"
       id="path62"
       d="m 22.988329,64.0009 92.956961,8.3e-5 v 5.8181 L 22.988329,69.819 Z"
       sodipodi:nodetypes="ccccc" />
    <path
       style="fill:#bcbcbc"
       inkscape:connector-curvature="0"
       id="path64"
       d="m 23.138289,81.235626 92.956961,8.3e-5 v 5.8181 l -92.956961,-8.3e-5 z"
       sodipodi:nodetypes="ccccc" />
    <path
       style="fill:#bcbcbc"
       inkscape:connector-curvature="0"
       id="path66"
       d="m 22.988329,11.638 92.956961,8.2e-5 v 5.818101 L 22.988329,17.4561 Z"
       sodipodi:nodetypes="ccccc" />
    <path
       style="fill:#bbbbbb"
       inkscape:connector-curvature="0"
       id="path70"
       d="m 81.176349,11.638082 h 5.67844 v 93.089598 h -5.67844 z"
       sodipodi:nodetypes="ccccc" />
    <path
       style="fill:#bbbbbb"
       inkscape:connector-curvature="0"
       id="path72"
       d="m 46.400389,11.638 h 5.67844 v 93.0896 h -5.67844 z"
       sodipodi:nodetypes="ccccc" />
    <path
       style="fill:#258aff;fill-opacity:1"
       id="path94"
       d="m 46.291553,5.8198213 h 5.8181 l 0.119136,-2.8e-6 h -5.8181 z"
       inkscape:connector-curvature="0"
       sodipodi:nodetypes="ccccc" />
    <g
       id="g880"
       transform="rotate(90,72.6114,72.747802)">
      <path
         sodipodi:nodetypes="ccccc"
         inkscape:connector-curvature="0"
         d="m 46.410689,23.451402 h 5.8181 l 0,-5.818182 h -5.8181 z"
         id="path74"
         style="fill:#258aff;fill-opacity:1" />
      <path
         sodipodi:nodetypes="ccccc"
         inkscape:connector-curvature="0"
         d="m 46.410689,58.360493 h 5.8181 l -4.08e-4,-28.946581 h -5.8181 z"
         id="path76"
         style="fill:#258aff;fill-opacity:1" />
      <path
         sodipodi:nodetypes="ccccc"
         inkscape:connector-curvature="0"
         d="m 46.410689,93.269584 h 5.8181 V 64.178675 h -5.8181 z"
         id="path78"
         style="fill:#258aff;fill-opacity:1" />
      <path
         sodipodi:nodetypes="ccccc"
         inkscape:connector-curvature="0"
         d="m 46.410689,122.18321 h 5.8181 V 99.087766 h -5.8181 z"
         id="path80"
         style="fill:#258aff;fill-opacity:1" />
      <path
         sodipodi:nodetypes="ccccc"
         inkscape:connector-curvature="0"
         d="m 46.410689,128.17867 h 5.8181 l 0.134111,5.81802 h -5.8181 z"
         id="path96"
         style="fill:#258aff;fill-opacity:1" />
    </g>
    <g
       transform="translate(-0.27401821,2.9107276)"
       id="g933">
      <g
         id="g884"
         transform="translate(0,-17.454546)">
        <path
           id="path132"
           d="M 34.9086,64.0009 C 26.531902,69.44044 8.3766971,81.833759 0,87.2733 0,76.394219 0,51.607581 0,40.7285 8.3766972,46.168041 26.531903,58.561359 34.9086,64.0009 Z"
           inkscape:connector-curvature="0"
           style="fill:url(#linearGradient919);fill-opacity:1;stroke:none;stroke-width:0.6609996"
           sodipodi:nodetypes="cccc" />
        <path
           d="M 5.8183594,51.597656 V 76.402344 C 12.231998,72.114227 18.179799,68.160277 24.421875,64 18.179772,59.840045 12.232201,55.885503 5.8183594,51.597656 Z"
           id="path941"
           style="fill:#bfd9ff;fill-opacity:1;stroke:none;stroke-width:0.6609996"
           inkscape:original="M 0 40.728516 L 0 87.273438 C 8.3766971 81.833896 26.531505 69.43954 34.908203 64 C 26.531506 58.560459 8.3766972 46.168057 0 40.728516 z "
           inkscape:radius="-5.8181"
           sodipodi:type="inkscape:offset" />
      </g>
    </g>
    <path
       sodipodi:nodetypes="ccccc"
       d="m 22.998709,104.72899 92.956961,8e-5 v 5.8181 l -92.956961,-8e-5 z"
       id="path918"
       inkscape:connector-curvature="0"
       style="fill:#bcbcbc" />
  </g>
</svg>
